X:1
T: The Handy Man
C:Bruce Shawyer
R:Reel
Q: 232
K:G
M:4/4
L:1/8
|:G2 GA B2 G2|B2 d2 d4|A2 AB c2 B2|A2 D2 D4|
G2 GA B2 G2|B2 d2 d4|c2 cB A2 D2|G2 G2 G4|
B2 Bc d2 B2|d2 g2 g4|c2 cd e2 c2|d2 f2 f4|
B2 Bc d2 B2|d2 g2 g4|e2 ed c2 A2|G2 G2 G4:|
